svg/crypto/monero_fill.svg

<?xml version="1.0" encoding="UTF-8"?>
<svg width="24px" height="24px" viewBox="0 0 24 24" version="1.1" xmlns="http://www.w3.org/2000/svg" xmlns:xlink="http://www.w3.org/1999/xlink">
    <title>monero_fill</title>
    <g id="Icon" stroke="none" stroke-width="1" fill="none" fill-rule="evenodd">
        <g id="Crypto" transform="translate(-720.000000, -48.000000)" fill-rule="nonzero">
            <g id="monero_fill" transform="translate(720.000000, 48.000000)">
                <path d="M24,0 L24,24 L0,24 L0,0 L24,0 Z M12.5935,23.2578 L12.5819,23.2595 L12.5109,23.295 L12.4919,23.2987 L12.4767,23.295 L12.4057,23.2595 C12.3958,23.2564 12.387,23.259 12.3821,23.2649 L12.378,23.2758 L12.3609,23.7031 L12.3659,23.7235 L12.3769,23.7357 L12.4805,23.8097 L12.4953,23.8136 L12.5071,23.8097 L12.6107,23.7357 L12.6233,23.7197 L12.6267,23.7031 L12.6096,23.2758 C12.6076,23.2657 12.601,23.2593 12.5935,23.2578 Z M12.8584,23.1453 L12.8445,23.1473 L12.6598,23.2397 L12.6499,23.2499 L12.6472,23.2611 L12.6651,23.6906 L12.6699,23.7034 L12.6784,23.7105 L12.8793,23.8032 C12.8914,23.8069 12.9022,23.803 12.9078,23.7952 L12.9118,23.7812 L12.8777,23.1665 C12.8753,23.1546 12.8674,23.147 12.8584,23.1453 Z M12.143,23.1473 C12.1332,23.1424 12.1222,23.1453 12.1156,23.1526 L12.1099,23.1665 L12.0758,23.7812 C12.0751,23.7927 12.0828,23.8019 12.0926,23.8046 L12.1083,23.8032 L12.3092,23.7105 L12.3186,23.7024 L12.3225,23.6906 L12.3404,23.2611 L12.3372,23.2485 L12.3278,23.2397 L12.143,23.1473 Z" id="MingCute"></path>
                <path d="M15,11.533 L15,15 C15,15.51285 15.386027,15.9355092 15.8833761,15.9932725 L16,16 L21.1679,16 C19.6248,19.5318 16.1006,22 12,22 C8.001876,22 4.5517683,19.6536674 2.95151577,16.2628688 L2.83209,16 L8,16 C8.51283143,16 8.93550653,15.613973 8.9932722,15.1166239 L9,15 L9,11.533 L11.1483,15.0241 C11.3303,15.3198 11.6527,15.5 12,15.5 C12.3038875,15.5 12.5887109,15.3620344 12.7770943,15.1294471 L12.8517,15.0241 L15,11.533 Z M12,2 C17.5228,2 22,6.47715 22,12 C22,12.54792 21.955904,13.0856 21.8711424,13.6096096 L21.8,14 L17,14 L17,8 C17,7.5526 16.7028,7.15965 16.2723,7.0378 C15.8810273,6.92702727 15.4660355,7.06482479 15.2176328,7.37706784 L15.1483,7.4759 L12,12.592 L8.85166,7.4759 C8.61718,7.09487 8.15814,6.91595 7.72766,7.0378 C7.33630545,7.14857273 7.05513273,7.48339504 7.00724475,7.87949459 L7,8 L7,14 L2.20004,14 C2.06886,13.3538 2,12.6849 2,12 C2,6.47715 6.47715,2 12,2 Z" id="形状" fill="#09244B"></path>
            </g>
        </g>
    </g>
</svg>

<svg xmlns="http://www.w3.org/2000/svg" width="24" height="24"><g fill="none" fill-rule="nonzero"><path d="M24 0v24H0V0h24ZM12.594 23.258l-.012.002-.071.035-.02.004-.014-.004-.071-.036c-.01-.003-.019 0-.024.006l-.004.01-.017.428.005.02.01.013.104.074.015.004.012-.004.104-.074.012-.016.004-.017-.017-.427c-.002-.01-.009-.017-.016-.018Zm.264-.113-.014.002-.184.093-.01.01-.003.011.018.43.005.012.008.008.201.092c.012.004.023 0 .029-.008l.004-.014-.034-.614c-.003-.012-.01-.02-.02-.022Zm-.715.002a.023.023 0 0 0-.027.006l-.006.014-.034.614c0 .012.007.02.017.024l.015-.002.201-.093.01-.008.003-.011.018-.43-.003-.012-.01-.01-.184-.092Z"/><path fill="#09244B" d="M15 11.533V15a1 1 0 0 0 .883.993L16 16h5.168A10.002 10.002 0 0 1 12 22a10.001 10.001 0 0 1-9.048-5.737L2.832 16H8a1 1 0 0 0 .993-.883L9 15v-3.467l2.148 3.491a1 1 0 0 0 1.63.105l.074-.105L15 11.533ZM12 2c5.523 0 10 4.477 10 10 0 .548-.044 1.086-.129 1.61L21.8 14H17V8a1 1 0 0 0-1.782-.623l-.07.099L12 12.592 8.852 7.476a1 1 0 0 0-1.845.403L7 8v6H2.2c-.131-.646-.2-1.315-.2-2C2 6.477 6.477 2 12 2Z"/></g></svg>
